X: 2
T: Over the Water to Charlie
P: piffero primo a0839
O: trad
%R: jig, march
F: http://ancients.sudburymuster.org/mus/ssp/pdf/stkildaF.pdf
Z: 2019 John Chambers <jc:trillian.mit.edu>
M: 12/8
L: 1/8
K: G
z |\
GBd eBd efg dBd | GBd dBd e2f g2z |\
GBd eBd efg dBd | bag agf e2f g2 :|
|: z |\
bag agf efg dBd | bag agf e2a a3 |\
bag agf efg dBd | GBd dBd e2f g2 :|


